X:122
T:Ervin McCullough's Welcome to Elysium
R:march
C: 2005,  2010 L.E. McCullough 
M:4/4
L:1/8
K:G
GA|:~B3d BA2 G/A/|Bd g>f ed2 G/A/|~B3d e>d B/G/A/F/|D2 D~D D2GA|
~B3d BA2 G/A/|Bdg>b ag2 g/e/|dG B>G AD B>A|1~G3A G2GA:|2~G3A G3 G/A/|| 
|:baag ad2 g/a/|bc' (3bc'g a2z g/f/|eGce dg2 e/d/|Bd g>B A2GA|
~B3d BA2 G/A/|Bd g>b ag2 g/e/|dG B>G AD B>A|1~G3A G3 g/a/:|2~G3A G2GA|| 
<end>
<start>
